packages/core/assets/Icons/arrow_up.svg

<svg viewBox="0 0 20 20" fill="none" xmlns="http://www.w3.org/2000/svg">
<path d="M9.16664 6.52083L5.0833 10.6042C4.91664 10.7708 4.72219 10.8507 4.49997 10.8437C4.27775 10.8368 4.0833 10.75 3.91664 10.5833C3.76386 10.4167 3.684 10.2222 3.67705 10C3.67011 9.77778 3.74997 9.58333 3.91664 9.41667L9.41664 3.91667C9.49997 3.83333 9.59025 3.77431 9.68747 3.73958C9.78469 3.70486 9.88886 3.6875 9.99997 3.6875C10.1111 3.6875 10.2152 3.70486 10.3125 3.73958C10.4097 3.77431 10.5 3.83333 10.5833 3.91667L16.0833 9.41667C16.2361 9.56944 16.3125 9.76042 16.3125 9.98958C16.3125 10.2187 16.2361 10.4167 16.0833 10.5833C15.9166 10.75 15.7187 10.8333 15.4896 10.8333C15.2604 10.8333 15.0625 10.75 14.8958 10.5833L10.8333 6.52083V15.8333C10.8333 16.0694 10.7534 16.2674 10.5937 16.4271C10.434 16.5868 10.2361 16.6667 9.99997 16.6667C9.76386 16.6667 9.56594 16.5868 9.40622 16.4271C9.2465 16.2674 9.16664 16.0694 9.16664 15.8333V6.52083Z" fill="currentColor"/>
</svg>

<svg xmlns="http://www.w3.org/2000/svg" width="20" height="20" fill="none" viewBox="0 0 20 20">
  <path fill="#201F1F" d="m9.167 6.52-4.084 4.084a.763.763 0 0 1-.583.24.838.838 0 0 1-.583-.26.879.879 0 0 1-.24-.584.763.763 0 0 1 .24-.583l5.5-5.5a.731.731 0 0 1 .27-.177.922.922 0 0 1 .313-.053c.111 0 .215.018.313.053a.73.73 0 0 1 .27.177l5.5 5.5c.153.152.23.343.23.573a.846.846 0 0 1-.23.593.811.811 0 0 1-.593.25.811.811 0 0 1-.594-.25l-4.063-4.062v9.312c0 .236-.08.434-.24.594a.806.806 0 0 1-.593.24.806.806 0 0 1-.594-.24.806.806 0 0 1-.24-.594V6.521Z"/>
</svg>
